X: 9
T:Old Woman Tossed Up, Longborough 1
M:6/8
L:1/8
A:Longborough
P:A(AB2)5
K:G
P:A
|:z|G>AB c>de|d>ec B>AG|A>Bc d2c |B>AG G2 :|
P:B
|:g|e>fg e>fg|e>fg g>fe|d>dd d>ef|g2d  d>BG|
G>AB c>de|d>ec B>AG|A>Bc d2c |B>AG G2 ||
